clock-remove.svg

<svg fill="currentColor" viewBox="0 0 24 24"><path d="M13.72 21.84c-.56.1-1.13.16-1.72.16-5.5 0-10-4.5-10-10S6.5 2 12 2s10 4.5 10 10c0 .59-.06 1.16-.16 1.72A5.9 5.9 0 0 0 19 13c-1.26 0-2.43.39-3.4 1.06l-3.1-1.86V7H11v6l3.43 2.11A5.96 5.96 0 0 0 13 19c0 1.03.26 2 .72 2.84m7.4-6.38L19 17.59l-2.12-2.12-1.41 1.41L17.59 19l-2.12 2.12 1.41 1.42L19 20.41l2.12 2.13 1.42-1.42L20.41 19l2.13-2.12z"/></svg>

<svg  viewBox="0 0 24 24" fill="currentColor"><path  d="M13.72 21.84C13.16 21.94 12.59 22 12 22C6.5 22 2 17.5 2 12S6.5 2 12 2 22 6.5 22 12C22 12.59 21.94 13.16 21.84 13.72C21 13.26 20.03 13 19 13C17.74 13 16.57 13.39 15.6 14.06L12.5 12.2V7H11V13L14.43 15.11C13.54 16.16 13 17.5 13 19C13 20.03 13.26 21 13.72 21.84M21.12 15.46L19 17.59L16.88 15.47L15.47 16.88L17.59 19L15.47 21.12L16.88 22.54L19 20.41L21.12 22.54L22.54 21.12L20.41 19L22.54 16.88L21.12 15.46Z"/></svg>
